svg/Logotipo.svg

<svg width="348" height="80" viewBox="0 0 348 80" fill="none" xmlns="http://www.w3.org/2000/svg">
<path d="M128.616 67H123.648L110.621 49.4246L106.765 52.8853V67H102.562V30.8605H106.765V48.8808C107.704 47.8096 108.668 46.7467 109.657 45.692C110.645 44.6208 111.626 43.5414 112.598 42.4538L123.153 30.8605H128.073L113.686 46.5325L128.616 67ZM143.374 39.4133C145.681 39.4133 147.658 39.9242 149.306 40.9459C150.954 41.9677 152.215 43.4014 153.088 45.2471C153.962 47.0763 154.398 49.2186 154.398 51.6741V54.2202H135.686C135.735 57.4007 136.526 59.8232 138.059 61.4876C139.592 63.152 141.75 63.9843 144.536 63.9843C146.249 63.9843 147.766 63.8277 149.084 63.5146C150.402 63.2015 151.77 62.7401 153.187 62.1303V65.7393C151.819 66.3491 150.46 66.794 149.109 67.0742C147.774 67.3543 146.192 67.4944 144.362 67.4944C141.759 67.4944 139.485 66.967 137.54 65.9124C135.612 64.8412 134.112 63.2756 133.041 61.2157C131.97 59.1558 131.434 56.6344 131.434 53.6516C131.434 50.7347 131.92 48.2134 132.893 46.0875C133.882 43.9452 135.266 42.2972 137.046 41.1437C138.842 39.9901 140.951 39.4133 143.374 39.4133ZM143.324 42.7751C141.133 42.7751 139.386 43.492 138.084 44.9257C136.782 46.3594 136.007 48.3617 135.76 50.9325H150.097C150.081 49.3175 149.825 47.9003 149.331 46.6808C148.853 45.4448 148.12 44.489 147.131 43.8134C146.142 43.1212 144.873 42.7751 143.324 42.7751ZM157.093 39.9077H161.493L167.475 55.6292C167.821 56.552 168.142 57.4419 168.439 58.2988C168.736 59.1393 168.999 59.9468 169.23 60.7213C169.461 61.4958 169.642 62.2457 169.774 62.9708H169.947C170.178 62.1468 170.507 61.0674 170.936 59.7325C171.364 58.3812 171.826 57.0052 172.32 55.6044L177.981 39.9077H182.405L170.614 70.9798C169.988 72.6442 169.255 74.0944 168.414 75.3304C167.59 76.5663 166.585 77.5139 165.399 78.1731C164.212 78.8488 162.778 79.1866 161.097 79.1866C160.323 79.1866 159.639 79.1371 159.046 79.0383C158.452 78.9559 157.942 78.857 157.513 78.7416V75.454C157.876 75.5364 158.312 75.6105 158.823 75.6765C159.351 75.7424 159.894 75.7753 160.455 75.7753C161.476 75.7753 162.358 75.5776 163.1 75.1821C163.858 74.803 164.509 74.2427 165.052 73.5012C165.596 72.7596 166.066 71.8779 166.461 70.8562L167.945 67.0494L157.093 39.9077ZM203.244 67L191.107 35.0133H190.909C190.975 35.689 191.032 36.5129 191.082 37.4852C191.131 38.4575 191.172 39.5204 191.205 40.674C191.238 41.8111 191.255 42.9729 191.255 44.1594V67H187.349V30.8605H193.578L205.023 60.9191H205.197L216.815 30.8605H222.994V67H218.842V43.8628C218.842 42.7916 218.858 41.7205 218.891 40.6493C218.924 39.5616 218.965 38.5399 219.015 37.5841C219.064 36.6118 219.113 35.7714 219.163 35.0627H218.965L206.68 67H203.244ZM242.399 39.4628C245.629 39.4628 248.027 40.1879 249.592 41.6381C251.158 43.0883 251.941 45.4036 251.941 48.5842V67H248.95L248.159 62.9955H247.961C247.203 63.9843 246.412 64.8165 245.588 65.4921C244.764 66.1513 243.808 66.6539 242.72 67C241.649 67.3296 240.331 67.4944 238.765 67.4944C237.117 67.4944 235.651 67.206 234.365 66.6292C233.096 66.0524 232.091 65.179 231.349 64.009C230.624 62.8389 230.262 61.3558 230.262 59.5595C230.262 56.8569 231.333 54.7805 233.475 53.3303C235.618 51.8801 238.881 51.0891 243.264 50.9572L247.936 50.7595V49.1033C247.936 46.7632 247.433 45.1235 246.428 44.1841C245.423 43.2448 244.006 42.7751 242.177 42.7751C240.759 42.7751 239.408 42.9811 238.123 43.3931C236.837 43.8051 235.618 44.2913 234.464 44.8516L233.203 41.7369C234.423 41.1107 235.824 40.5751 237.406 40.1302C238.988 39.6852 240.652 39.4628 242.399 39.4628ZM247.887 53.6516L243.759 53.8246C240.38 53.9565 237.999 54.5085 236.615 55.4808C235.23 56.4531 234.538 57.8292 234.538 59.6089C234.538 61.158 235.008 62.3033 235.947 63.0449C236.887 63.7865 238.131 64.1573 239.68 64.1573C242.086 64.1573 244.055 63.4899 245.588 62.155C247.12 60.8202 247.887 58.8179 247.887 56.1483V53.6516ZM277.921 59.5842C277.921 61.3146 277.484 62.773 276.61 63.9595C275.753 65.1296 274.518 66.0112 272.903 66.6045C271.304 67.1978 269.392 67.4944 267.168 67.4944C265.273 67.4944 263.633 67.3461 262.249 67.0494C260.864 66.7528 259.653 66.3326 258.615 65.7888V62.0067C259.719 62.5505 261.037 63.0449 262.57 63.4899C264.102 63.9348 265.668 64.1573 267.267 64.1573C269.607 64.1573 271.304 63.7783 272.359 63.0202C273.413 62.2621 273.941 61.2322 273.941 59.9303C273.941 59.1887 273.727 58.5378 273.298 57.9775C272.886 57.4007 272.186 56.8486 271.197 56.3213C270.208 55.7775 268.84 55.1842 267.094 54.5415C265.363 53.8823 263.864 53.2314 262.595 52.5887C261.342 51.9295 260.37 51.1302 259.678 50.1909C259.002 49.2516 258.664 48.0321 258.664 46.5325C258.664 44.2418 259.587 42.4868 261.433 41.2673C263.295 40.0313 265.734 39.4133 268.75 39.4133C270.381 39.4133 271.906 39.5781 273.323 39.9077C274.756 40.2208 276.091 40.6493 277.327 41.1931L275.943 44.4808C274.822 44.0029 273.628 43.5991 272.359 43.2695C271.09 42.9399 269.796 42.7751 268.478 42.7751C266.583 42.7751 265.124 43.0883 264.102 43.7145C263.097 44.3407 262.595 45.1976 262.595 46.2853C262.595 47.1257 262.825 47.8179 263.287 48.3617C263.765 48.9055 264.523 49.4164 265.561 49.8943C266.599 50.3722 267.967 50.9325 269.664 51.5752C271.362 52.2014 272.828 52.8524 274.064 53.528C275.3 54.1872 276.248 54.9947 276.907 55.9505C277.583 56.8898 277.921 58.1011 277.921 59.5842ZM293.271 64.1326C293.947 64.1326 294.639 64.0749 295.348 63.9595C296.056 63.8442 296.633 63.7041 297.078 63.5393V66.7281C296.6 66.9423 295.933 67.1236 295.076 67.2719C294.235 67.4202 293.411 67.4944 292.604 67.4944C291.17 67.4944 289.868 67.2472 288.698 66.7528C287.528 66.2419 286.589 65.385 285.88 64.182C285.188 62.979 284.842 61.3146 284.842 59.1887V43.1212H280.986V41.119L284.867 39.5122L286.498 33.629H288.97V39.9077H296.905V43.1212H288.97V59.0651C288.97 60.7625 289.357 62.0314 290.132 62.8719C290.923 63.7123 291.969 64.1326 293.271 64.1326ZM312.997 39.4133C315.304 39.4133 317.282 39.9242 318.93 40.9459C320.578 41.9677 321.838 43.4014 322.712 45.2471C323.585 47.0763 324.022 49.2186 324.022 51.6741V54.2202H305.309C305.359 57.4007 306.15 59.8232 307.682 61.4876C309.215 63.152 311.374 63.9843 314.159 63.9843C315.873 63.9843 317.389 63.8277 318.707 63.5146C320.026 63.2015 321.393 62.7401 322.811 62.1303V65.7393C321.443 66.3491 320.083 66.794 318.732 67.0742C317.397 67.3543 315.815 67.4944 313.986 67.4944C311.382 67.4944 309.108 66.967 307.163 65.9124C305.235 64.8412 303.736 63.2756 302.664 61.2157C301.593 59.1558 301.058 56.6344 301.058 53.6516C301.058 50.7347 301.544 48.2134 302.516 46.0875C303.505 43.9452 304.889 42.2972 306.669 41.1437C308.465 39.9901 310.575 39.4133 312.997 39.4133ZM312.948 42.7751C310.756 42.7751 309.009 43.492 307.707 44.9257C306.405 46.3594 305.631 48.3617 305.384 50.9325H319.721C319.704 49.3175 319.449 47.9003 318.954 46.6808C318.477 45.4448 317.743 44.489 316.754 43.8134C315.766 43.1212 314.497 42.7751 312.948 42.7751ZM343.303 39.4133C343.847 39.4133 344.415 39.4463 345.009 39.5122C345.602 39.5616 346.129 39.6358 346.591 39.7347L346.071 43.5414C345.627 43.4261 345.132 43.3354 344.588 43.2695C344.044 43.2036 343.534 43.1707 343.056 43.1707C341.968 43.1707 340.938 43.3931 339.966 43.8381C339.01 44.2665 338.17 44.8928 337.444 45.7167C336.719 46.5242 336.151 47.5048 335.739 48.6583C335.327 49.7954 335.121 51.0643 335.121 52.4651V67H330.993V39.9077H334.404L334.849 44.901H335.022C335.582 43.8958 336.258 42.9811 337.049 42.1572C337.84 41.3167 338.755 40.6493 339.793 40.1549C340.847 39.6605 342.018 39.4133 343.303 39.4133Z" fill="white"/>
<path fill-rule="evenodd" clip-rule="evenodd" d="M0 8.25C0 6.06196 0.869194 3.96354 2.41637 2.41637C3.96354 0.869194 6.06196 0 8.25 0H31.02C32.2565 0.000154265 33.4772 0.278267 34.5918 0.813773C35.7064 1.34928 36.6863 2.12848 37.4591 3.09375L43.2341 10.3125H74.25C76.438 10.3125 78.5365 11.1817 80.0836 12.7289C81.6308 14.276 82.5 16.3745 82.5 18.5625V66C82.5 68.188 81.6308 70.2865 80.0836 71.8336C78.5365 73.3808 76.438 74.25 74.25 74.25H8.25C6.06196 74.25 3.96354 73.3808 2.41637 71.8336C0.869194 70.2865 0 68.188 0 66V8.25ZM45.375 44.2695C46.9477 43.3614 48.1768 41.9598 48.8717 40.2819C49.5667 38.6041 49.6885 36.7439 49.2185 34.9897C48.7485 33.2356 47.7128 31.6855 46.2721 30.5799C44.8313 29.4744 43.066 28.8751 41.25 28.875C39.434 28.8751 37.6687 29.4744 36.2279 30.5799C34.7872 31.6855 33.7515 33.2356 33.2815 34.9897C32.8115 36.7439 32.9333 38.6041 33.6283 40.2819C34.3232 41.9598 35.5523 43.3614 37.125 44.2695V53.625C37.125 54.719 37.5596 55.7682 38.3332 56.5418C39.1068 57.3154 40.156 57.75 41.25 57.75C42.344 57.75 43.3932 57.3154 44.1668 56.5418C44.9404 55.7682 45.375 54.719 45.375 53.625V44.2695Z" fill="#6A99F0"/>
</svg>

<svg width="348" height="80" fill="none" xmlns="http://www.w3.org/2000/svg"><path d="M128.616 67h-4.968l-13.027-17.575-3.856 3.46V67h-4.203V30.86h4.203v18.02a128.377 128.377 0 0 1 2.892-3.188c.988-1.071 1.969-2.15 2.941-3.238l10.555-11.594h4.92l-14.387 15.672L128.616 67Zm14.758-27.587c2.307 0 4.284.511 5.932 1.533 1.648 1.022 2.909 2.455 3.782 4.301.874 1.83 1.31 3.972 1.31 6.427v2.546h-18.712c.049 3.18.84 5.603 2.373 7.268 1.533 1.664 3.691 2.496 6.477 2.496 1.713 0 3.23-.156 4.548-.47a25.073 25.073 0 0 0 4.103-1.384v3.61a19.979 19.979 0 0 1-4.078 1.334c-1.335.28-2.917.42-4.747.42-2.603 0-4.877-.527-6.822-1.582-1.928-1.07-3.428-2.636-4.499-4.696-1.071-2.06-1.607-4.582-1.607-7.564 0-2.917.486-5.439 1.459-7.565.989-2.142 2.373-3.79 4.153-4.943 1.796-1.154 3.905-1.73 6.328-1.73Zm-.05 3.362c-2.191 0-3.938.717-5.24 2.15-1.302 1.434-2.077 3.437-2.324 6.008h14.337c-.016-1.615-.272-3.033-.766-4.252-.478-1.236-1.211-2.192-2.2-2.868-.989-.692-2.258-1.038-3.807-1.038Zm13.769-2.867h4.4l5.982 15.721c.346.923.667 1.813.964 2.67.297.84.56 1.648.791 2.422.231.775.412 1.525.544 2.25h.173c.231-.824.56-1.904.989-3.238.428-1.352.89-2.728 1.384-4.129l5.661-15.696h4.424L170.614 70.98c-.626 1.664-1.359 3.114-2.2 4.35-.824 1.236-1.829 2.184-3.015 2.843-1.187.676-2.621 1.014-4.302 1.014-.774 0-1.458-.05-2.051-.149a12.689 12.689 0 0 1-1.533-.296v-3.288c.363.082.799.157 1.31.223.528.065 1.071.098 1.632.098 1.021 0 1.903-.197 2.645-.593.758-.379 1.409-.94 1.952-1.68.544-.742 1.014-1.624 1.409-2.646l1.484-3.807-10.852-27.141ZM203.244 67l-12.137-31.987h-.198c.066.676.123 1.5.173 2.472.049.973.09 2.035.123 3.189.033 1.137.05 2.299.05 3.485V67h-3.906V30.86h6.229l11.445 30.06h.174l11.618-30.06h6.179V67h-4.152V43.863c0-1.071.016-2.142.049-3.214.033-1.087.074-2.11.124-3.065.049-.972.098-1.813.148-2.521h-.198L206.68 67h-3.436Zm39.155-27.537c3.23 0 5.628.725 7.193 2.175 1.566 1.45 2.349 3.766 2.349 6.946V67h-2.991l-.791-4.005h-.198c-.758.99-1.549 1.822-2.373 2.497-.824.66-1.78 1.162-2.868 1.508-1.071.33-2.389.494-3.955.494-1.648 0-3.114-.288-4.4-.865a6.854 6.854 0 0 1-3.016-2.62c-.725-1.17-1.087-2.653-1.087-4.45 0-2.702 1.071-4.778 3.213-6.229 2.143-1.45 5.406-2.24 9.789-2.373l4.672-.197v-1.657c0-2.34-.503-3.98-1.508-4.919-1.005-.94-2.422-1.409-4.251-1.409-1.418 0-2.769.206-4.054.618a27.741 27.741 0 0 0-3.659 1.459l-1.261-3.115c1.22-.626 2.621-1.162 4.203-1.607a18.354 18.354 0 0 1 4.993-.667Zm5.488 14.189-4.128.173c-3.379.131-5.76.683-7.144 1.656-1.385.972-2.077 2.348-2.077 4.128 0 1.549.47 2.694 1.409 3.436.94.741 2.184 1.112 3.733 1.112 2.406 0 4.375-.667 5.908-2.002 1.532-1.335 2.299-3.337 2.299-6.007v-2.496Zm30.034 5.932c0 1.73-.437 3.189-1.311 4.375-.857 1.17-2.092 2.052-3.707 2.645-1.599.594-3.511.89-5.735.89-1.895 0-3.535-.148-4.919-.445-1.385-.296-2.596-.716-3.634-1.26v-3.782c1.104.544 2.422 1.038 3.955 1.483a16.76 16.76 0 0 0 4.697.667c2.34 0 4.037-.379 5.092-1.137 1.054-.758 1.582-1.788 1.582-3.09 0-.741-.214-1.392-.643-1.953-.412-.576-1.112-1.128-2.101-1.656-.989-.543-2.357-1.137-4.103-1.78-1.731-.659-3.23-1.31-4.499-1.952-1.253-.66-2.225-1.459-2.917-2.398-.676-.94-1.014-2.159-1.014-3.659 0-2.29.923-4.045 2.769-5.265 1.862-1.236 4.301-1.854 7.317-1.854 1.631 0 3.156.165 4.573.495 1.433.313 2.768.741 4.004 1.285l-1.384 3.288a25.42 25.42 0 0 0-3.584-1.212 15.377 15.377 0 0 0-3.881-.494c-1.895 0-3.354.313-4.376.94-1.005.626-1.507 1.483-1.507 2.57 0 .84.23 1.533.692 2.077.478.544 1.236 1.054 2.274 1.532s2.406 1.038 4.103 1.681c1.698.626 3.164 1.277 4.4 1.953 1.236.66 2.184 1.467 2.843 2.422.676.94 1.014 2.151 1.014 3.634Zm15.35 4.549c.676 0 1.368-.058 2.077-.173.708-.116 1.285-.256 1.73-.42v3.188c-.478.214-1.145.396-2.002.544a14.22 14.22 0 0 1-2.472.222c-1.434 0-2.736-.247-3.906-.741-1.17-.511-2.109-1.368-2.818-2.571-.692-1.203-1.038-2.867-1.038-4.993V43.12h-3.856V41.12l3.881-1.607 1.631-5.883h2.472v6.279h7.935v3.213h-7.935v15.944c0 1.698.387 2.966 1.162 3.807.791.84 1.837 1.26 3.139 1.26Zm19.726-24.72c2.307 0 4.285.511 5.933 1.533 1.648 1.022 2.908 2.455 3.782 4.301.873 1.83 1.31 3.972 1.31 6.427v2.546h-18.713c.05 3.18.841 5.603 2.373 7.268 1.533 1.664 3.692 2.496 6.477 2.496 1.714 0 3.23-.156 4.548-.47a25.083 25.083 0 0 0 4.104-1.384v3.61a19.987 19.987 0 0 1-4.079 1.334c-1.335.28-2.917.42-4.746.42-2.604 0-4.878-.527-6.823-1.582-1.928-1.07-3.427-2.636-4.499-4.696-1.071-2.06-1.606-4.582-1.606-7.564 0-2.917.486-5.439 1.458-7.565.989-2.142 2.373-3.79 4.153-4.943 1.796-1.154 3.906-1.73 6.328-1.73Zm-.049 3.362c-2.192 0-3.939.717-5.241 2.15-1.302 1.434-2.076 3.437-2.323 6.008h14.337c-.017-1.615-.272-3.033-.767-4.252-.477-1.236-1.211-2.192-2.2-2.868-.988-.692-2.257-1.038-3.806-1.038Zm30.355-3.362c.544 0 1.112.033 1.706.1.593.049 1.12.123 1.582.222l-.52 3.806a11.363 11.363 0 0 0-1.483-.271 12.767 12.767 0 0 0-1.532-.1 7.336 7.336 0 0 0-3.09.668 7.336 7.336 0 0 0-2.522 1.879c-.725.807-1.293 1.788-1.705 2.941-.412 1.137-.618 2.406-.618 3.807V67h-4.128V39.908h3.411l.445 4.993h.173a13.27 13.27 0 0 1 2.027-2.744 9.126 9.126 0 0 1 2.744-2.002c1.054-.495 2.225-.742 3.51-.742Z" fill="#fff"/><path fill-rule="evenodd" clip-rule="evenodd" d="M0 8.25A8.25 8.25 0 0 1 8.25 0h22.77a8.25 8.25 0 0 1 6.44 3.094l5.774 7.219H74.25a8.25 8.25 0 0 1 8.25 8.25V66a8.25 8.25 0 0 1-8.25 8.25h-66A8.25 8.25 0 0 1 0 66V8.25Zm45.375 36.02a8.25 8.25 0 1 0-8.25 0v9.355a4.125 4.125 0 0 0 8.25 0V44.27Z" fill="#6A99F0"/></svg>
